flaticon/grooming/powder.svg

<svg xmlns="http://www.w3.org/2000/svg" width="32" height="32" viewBox="0 0 24 24">
    <path d="M11.066406 2.363281C11.339844 2.363281 11.519531 2.183594 11.519531 1.910156 11.519531 1.683594 11.339844 1.453125 11.066406 1.453125 10.792969 1.453125 10.609375 1.636719 10.609375 1.910156 10.609375 2.183594 10.792969 2.363281 11.066406 2.363281zM12.882812 2.363281C13.15625 2.363281 13.339844 2.183594 13.339844 1.910156 13.339844 1.683594 13.15625 1.453125 12.882812 1.453125 12.609375 1.453125 12.429688 1.636719 12.429688 1.910156 12.429688 2.183594 12.609375 2.363281 12.882812 2.363281zM14.703125 2.363281C14.976562 2.363281 15.15625 2.183594 15.15625 1.910156 15.15625 1.683594 14.976562 1.453125 14.703125 1.453125 14.429688 1.453125 14.246094 1.636719 14.246094 1.910156 14.246094 2.183594 14.429688 2.363281 14.703125 2.363281zM9.246094 2.363281C9.519531 2.363281 9.703125 2.183594 9.703125 1.910156 9.703125 1.683594 9.519531 1.453125 9.246094 1.453125 8.976562 1.453125 8.792969 1.636719 8.792969 1.910156 8.792969 2.183594 8.976562 2.363281 9.246094 2.363281zM11.976562 3.273438C12.246094 3.273438 12.429688 3.089844 12.429688 2.816406 12.429688 2.589844 12.246094 2.363281 11.976562 2.363281 11.703125 2.363281 11.519531 2.546875 11.519531 2.816406 11.519531 3.089844 11.703125 3.273438 11.976562 3.273438zM10.15625 3.273438C10.429688 3.273438 10.609375 3.089844 10.609375 2.816406 10.609375 2.589844 10.429688 2.363281 10.15625 2.363281 9.882812 2.363281 9.703125 2.546875 9.703125 2.816406 9.703125 3.089844 9.882812 3.273438 10.15625 3.273438zM11.066406 3.273438C10.792969 3.273438 10.609375 3.453125 10.609375 3.726562 10.609375 4 10.792969 4.183594 11.066406 4.183594 11.339844 4.183594 11.519531 4 11.519531 3.726562 11.519531 3.5 11.339844 3.273438 11.066406 3.273438zM12.882812 3.273438C12.609375 3.273438 12.429688 3.453125 12.429688 3.726562 12.429688 4 12.609375 4.183594 12.882812 4.183594 13.15625 4.183594 13.339844 4 13.339844 3.726562 13.339844 3.5 13.15625 3.273438 12.882812 3.273438zM15.609375 3.273438C15.882812 3.273438 16.066406 3.089844 16.066406 2.816406 16.066406 2.589844 15.882812 2.363281 15.609375 2.363281 15.339844 2.363281 15.15625 2.546875 15.15625 2.816406 15.15625 3.089844 15.339844 3.273438 15.609375 3.273438zM13.792969 3.273438C14.066406 3.273438 14.246094 3.089844 14.246094 2.816406 14.246094 2.589844 14.066406 2.363281 13.792969 2.363281 13.519531 2.363281 13.339844 2.546875 13.339844 2.816406 13.339844 3.089844 13.519531 3.273438 13.792969 3.273438zM14.703125 3.273438C14.429688 3.273438 14.246094 3.453125 14.246094 3.726562 14.246094 4 14.429688 4.183594 14.703125 4.183594 14.976562 4.183594 15.15625 4 15.15625 3.726562 15.15625 3.5 14.976562 3.273438 14.703125 3.273438zM16.519531 4.183594C16.792969 4.183594 16.976562 4 16.976562 3.726562 16.976562 3.5 16.792969 3.273438 16.519531 3.273438 16.246094 3.273438 16.066406 3.453125 16.066406 3.726562 16.066406 4 16.246094 4.183594 16.519531 4.183594zM8.339844 3.273438C8.609375 3.273438 8.792969 3.089844 8.792969 2.816406 8.792969 2.589844 8.609375 2.363281 8.339844 2.363281 8.066406 2.363281 7.882812 2.546875 7.882812 2.816406 7.882812 3.089844 8.066406 3.273438 8.339844 3.273438zM7.429688 4.183594C7.703125 4.183594 7.882812 4 7.882812 3.726562 7.882812 3.5 7.703125 3.273438 7.429688 3.273438 7.15625 3.273438 6.976562 3.453125 6.976562 3.726562 6.976562 4 7.15625 4.183594 7.429688 4.183594zM5.609375 5.089844C5.339844 5.089844 5.15625 5.273438 5.15625 5.546875 5.15625 5.816406 5.339844 6 5.609375 6 5.882812 6 6.066406 5.816406 6.066406 5.546875 6.066406 5.316406 5.882812 5.089844 5.609375 5.089844zM9.246094 3.273438C8.976562 3.273438 8.792969 3.453125 8.792969 3.726562 8.792969 4 8.976562 4.183594 9.246094 4.183594 9.519531 4.183594 9.703125 4 9.703125 3.726562 9.703125 3.5 9.519531 3.273438 9.246094 3.273438zM11.976562 5.089844C12.246094 5.089844 12.429688 4.910156 12.429688 4.636719 12.429688 4.410156 12.246094 4.183594 11.976562 4.183594 11.703125 4.183594 11.519531 4.363281 11.519531 4.636719 11.519531 4.910156 11.703125 5.089844 11.976562 5.089844zM10.15625 5.089844C10.429688 5.089844 10.609375 4.910156 10.609375 4.636719 10.609375 4.410156 10.429688 4.183594 10.15625 4.183594 9.882812 4.183594 9.703125 4.363281 9.703125 4.636719 9.703125 4.910156 9.882812 5.089844 10.15625 5.089844zM11.066406 5.089844C10.792969 5.089844 10.609375 5.273438 10.609375 5.546875 10.609375 5.816406 10.792969 6 11.066406 6 11.339844 6 11.519531 5.816406 11.519531 5.546875 11.519531 5.316406 11.339844 5.089844 11.066406 5.089844zM12.882812 5.089844C12.609375 5.089844 12.429688 5.273438 12.429688 5.546875 12.429688 5.816406 12.609375 6 12.882812 6 13.15625 6 13.339844 5.816406 13.339844 5.546875 13.339844 5.316406 13.15625 5.089844 12.882812 5.089844zM15.609375 5.089844C15.882812 5.089844 16.066406 4.910156 16.066406 4.636719 16.066406 4.410156 15.882812 4.183594 15.609375 4.183594 15.339844 4.183594 15.15625 4.363281 15.15625 4.636719 15.15625 4.910156 15.339844 5.089844 15.609375 5.089844zM13.792969 5.089844C14.066406 5.089844 14.246094 4.910156 14.246094 4.636719 14.246094 4.410156 14.066406 4.183594 13.792969 4.183594 13.519531 4.183594 13.339844 4.363281 13.339844 4.636719 13.339844 4.910156 13.519531 5.089844 13.792969 5.089844zM14.703125 5.089844C14.429688 5.089844 14.246094 5.273438 14.246094 5.546875 14.246094 5.816406 14.429688 6 14.703125 6 14.976562 6 15.15625 5.816406 15.15625 5.546875 15.15625 5.316406 14.976562 5.089844 14.703125 5.089844zM16.519531 5.089844C16.246094 5.089844 16.066406 5.273438 16.066406 5.546875 16.066406 5.816406 16.246094 6 16.519531 6 16.792969 6 16.976562 5.816406 16.976562 5.546875 16.976562 5.316406 16.792969 5.089844 16.519531 5.089844zM17.429688 5.089844C17.703125 5.089844 17.882812 4.910156 17.882812 4.636719 17.882812 4.410156 17.703125 4.183594 17.429688 4.183594 17.15625 4.183594 16.976562 4.363281 16.976562 4.636719 16.976562 4.910156 17.15625 5.089844 17.429688 5.089844zM18.339844 6C18.609375 6 18.792969 5.816406 18.792969 5.546875 18.792969 5.316406 18.609375 5.089844 18.339844 5.089844 18.066406 5.089844 17.882812 5.273438 17.882812 5.546875 17.882812 5.816406 18.066406 6 18.339844 6zM8.339844 5.089844C8.609375 5.089844 8.792969 4.910156 8.792969 4.636719 8.792969 4.410156 8.609375 4.183594 8.339844 4.183594 8.066406 4.183594 7.882812 4.363281 7.882812 4.636719 7.882812 4.910156 8.066406 5.089844 8.339844 5.089844zM6.519531 4.183594C6.246094 4.183594 6.066406 4.363281 6.066406 4.636719 6.066406 4.910156 6.246094 5.089844 6.519531 5.089844 6.792969 5.089844 6.976562 4.910156 6.976562 4.636719 6.976562 4.410156 6.792969 4.183594 6.519531 4.183594zM7.429688 5.089844C7.15625 5.089844 6.976562 5.273438 6.976562 5.546875 6.976562 5.816406 7.15625 6 7.429688 6 7.703125 6 7.882812 5.816406 7.882812 5.546875 7.882812 5.316406 7.703125 5.089844 7.429688 5.089844zM9.246094 5.089844C8.976562 5.089844 8.792969 5.273438 8.792969 5.546875 8.792969 5.816406 8.976562 6 9.246094 6 9.519531 6 9.703125 5.816406 9.703125 5.546875 9.703125 5.316406 9.519531 5.089844 9.246094 5.089844zM11.976562 6C11.703125 6 11.519531 6.183594 11.519531 6.453125 11.519531 6.726562 11.703125 6.910156 11.976562 6.910156 12.246094 6.910156 12.429688 6.726562 12.429688 6.453125 12.429688 6.226562 12.246094 6 11.976562 6zM10.15625 6C9.882812 6 9.703125 6.183594 9.703125 6.453125 9.703125 6.726562 9.882812 6.910156 10.15625 6.910156 10.429688 6.910156 10.609375 6.726562 10.609375 6.453125 10.609375 6.226562 10.429688 6 10.15625 6zM15.609375 6C15.339844 6 15.15625 6.183594 15.15625 6.453125 15.15625 6.726562 15.339844 6.910156 15.609375 6.910156 15.882812 6.910156 16.066406 6.726562 16.066406 6.453125 16.066406 6.226562 15.882812 6 15.609375 6zM13.792969 6C13.519531 6 13.339844 6.183594 13.339844 6.453125 13.339844 6.726562 13.519531 6.910156 13.792969 6.910156 14.066406 6.910156 14.246094 6.726562 14.246094 6.453125 14.246094 6.226562 14.066406 6 13.792969 6zM8.339844 6C8.066406 6 7.882812 6.183594 7.882812 6.453125 7.882812 6.726562 8.066406 6.910156 8.339844 6.910156 8.609375 6.910156 8.792969 6.726562 8.792969 6.453125 8.792969 6.226562 8.609375 6 8.339844 6zM8.339844 6"/>
    <path d="M 20.203125 6.183594 C 20.070312 4.757812 19.394531 3.46875 18.34375 2.441406 C 18.324219 2.421875 18.300781 2.402344 18.28125 2.382812 C 18.273438 2.375 18.265625 2.367188 18.257812 2.359375 C 16.753906 0.921875 14.511719 0 12.019531 0 C 11.792969 0 11.566406 0.046875 11.339844 0.046875 C 10.746094 0.0898438 10.109375 0.183594 9.382812 0.410156 L 9.203125 0.453125 C 8.429688 0.683594 7.792969 0.953125 7.292969 1.226562 C 5.109375 2.453125 3.792969 4.5 3.792969 6.683594 L 3.792969 6.816406 L 7.429688 13.394531 L 7.429688 20.910156 C 7.421875 20.957031 7.421875 21.003906 7.429688 21.054688 L 7.429688 22.410156 C 7.429688 22.863281 7.703125 23.226562 8.109375 23.363281 C 9.339844 23.773438 10.65625 24 11.976562 24 C 13.292969 24 14.609375 23.816406 15.882812 23.363281 C 16.292969 23.226562 16.566406 22.863281 16.566406 22.410156 L 16.566406 13.425781 L 20.203125 6.773438 L 20.203125 6.636719 C 20.203125 6.5625 20.199219 6.488281 20.195312 6.417969 C 20.207031 6.339844 20.210938 6.261719 20.203125 6.183594 Z M 8.339844 14.316406 C 10.703125 14.816406 13.246094 14.816406 15.566406 14.316406 L 15.566406 20.625 L 15.519531 20.636719 C 13.15625 21.136719 10.703125 21.136719 8.382812 20.636719 L 8.339844 20.625 Z M 8.429688 13.316406 L 5.183594 7.421875 C 7.210938 7.976562 9.519531 8.273438 11.976562 8.273438 C 14.414062 8.273438 16.703125 7.980469 18.785156 7.433594 L 15.566406 13.316406 C 13.203125 13.816406 10.746094 13.816406 8.429688 13.316406 Z M 9.65625 1.273438 C 9.691406 1.261719 9.726562 1.253906 9.761719 1.242188 C 9.835938 1.375 9.976562 1.453125 10.15625 1.453125 C 10.410156 1.453125 10.585938 1.296875 10.609375 1.054688 C 10.875 1.007812 11.128906 0.976562 11.382812 0.953125 C 11.429688 0.953125 11.472656 0.953125 11.523438 0.953125 C 11.519531 0.96875 11.519531 0.984375 11.519531 1 C 11.519531 1.273438 11.703125 1.453125 11.976562 1.453125 C 12.246094 1.453125 12.429688 1.273438 12.429688 1 C 12.429688 0.988281 12.429688 0.976562 12.425781 0.964844 C 12.738281 0.980469 13.042969 1.011719 13.339844 1.058594 C 13.367188 1.296875 13.539062 1.453125 13.792969 1.453125 C 13.976562 1.453125 14.121094 1.371094 14.195312 1.230469 C 14.867188 1.402344 15.496094 1.648438 16.066406 1.960938 C 16.089844 2.203125 16.265625 2.363281 16.519531 2.363281 C 16.582031 2.363281 16.636719 2.355469 16.6875 2.335938 C 16.804688 2.417969 16.917969 2.5 17.03125 2.585938 C 16.996094 2.652344 16.976562 2.730469 16.976562 2.816406 C 16.976562 3.089844 17.15625 3.273438 17.429688 3.273438 C 17.539062 3.273438 17.636719 3.242188 17.710938 3.1875 C 17.796875 3.277344 17.878906 3.367188 17.957031 3.460938 C 17.910156 3.53125 17.882812 3.625 17.882812 3.726562 C 17.882812 4 18.066406 4.183594 18.339844 4.183594 C 18.386719 4.183594 18.433594 4.175781 18.472656 4.164062 C 18.824219 4.734375 19.050781 5.355469 19.132812 6.011719 C 18.9375 6.054688 18.8125 6.199219 18.796875 6.410156 C 18.484375 6.5 18.167969 6.582031 17.84375 6.660156 C 17.871094 6.597656 17.882812 6.53125 17.882812 6.453125 C 17.882812 6.226562 17.703125 6 17.429688 6 C 17.15625 6 16.976562 6.183594 16.976562 6.453125 C 16.976562 6.609375 17.035156 6.734375 17.132812 6.8125 C 16.957031 6.851562 16.78125 6.882812 16.601562 6.917969 C 16.574219 6.910156 16.546875 6.910156 16.519531 6.910156 C 16.425781 6.910156 16.339844 6.933594 16.269531 6.972656 C 15.886719 7.035156 15.492188 7.089844 15.09375 7.136719 C 15.019531 7.007812 14.878906 6.910156 14.703125 6.910156 C 14.480469 6.910156 14.320312 7.027344 14.265625 7.21875 C 13.957031 7.246094 13.644531 7.265625 13.332031 7.28125 C 13.292969 7.085938 13.125 6.910156 12.882812 6.910156 C 12.628906 6.910156 12.453125 7.070312 12.429688 7.3125 C 12.265625 7.316406 12.097656 7.316406 11.929688 7.316406 C 11.792969 7.316406 11.65625 7.316406 11.515625 7.316406 C 11.492188 7.105469 11.320312 6.910156 11.066406 6.910156 C 10.820312 6.910156 10.648438 7.058594 10.617188 7.289062 C 10.300781 7.277344 9.992188 7.257812 9.683594 7.234375 C 9.628906 7.058594 9.46875 6.910156 9.246094 6.910156 C 9.050781 6.910156 8.902344 7.003906 8.835938 7.15625 C 8.457031 7.117188 8.082031 7.066406 7.714844 7.011719 C 7.640625 6.949219 7.542969 6.910156 7.429688 6.910156 C 7.367188 6.910156 7.3125 6.917969 7.261719 6.933594 C 7.097656 6.90625 6.933594 6.875 6.773438 6.84375 C 6.898438 6.765625 6.976562 6.628906 6.976562 6.453125 C 6.976562 6.226562 6.792969 6 6.519531 6 C 6.246094 6 6.066406 6.183594 6.066406 6.453125 C 6.066406 6.550781 6.089844 6.632812 6.128906 6.703125 C 5.796875 6.625 5.472656 6.539062 5.15625 6.445312 C 5.152344 6.234375 4.992188 6.027344 4.75 6.003906 C 4.800781 5.652344 4.894531 5.308594 5.023438 4.972656 C 5.101562 4.898438 5.148438 4.792969 5.15625 4.667969 C 5.238281 4.492188 5.332031 4.320312 5.433594 4.152344 C 5.488281 4.171875 5.546875 4.183594 5.609375 4.183594 C 5.882812 4.183594 6.066406 4 6.066406 3.726562 C 6.066406 3.625 6.027344 3.519531 5.960938 3.4375 C 5.984375 3.410156 6.011719 3.378906 6.035156 3.351562 C 6.042969 3.34375 6.050781 3.335938 6.058594 3.324219 C 6.109375 3.273438 6.160156 3.21875 6.210938 3.167969 C 6.289062 3.234375 6.394531 3.273438 6.519531 3.273438 C 6.792969 3.273438 6.976562 3.089844 6.976562 2.816406 C 6.976562 2.726562 6.945312 2.640625 6.894531 2.5625 C 7 2.480469 7.113281 2.402344 7.226562 2.324219 C 7.285156 2.347656 7.355469 2.363281 7.429688 2.363281 C 7.695312 2.363281 7.871094 2.191406 7.882812 1.933594 C 8.308594 1.730469 8.816406 1.523438 9.476562 1.316406 Z M 15.519531 22.5 C 13.203125 23.273438 10.703125 23.273438 8.382812 22.5 C 8.382812 22.5 8.339844 22.453125 8.339844 22.410156 L 8.339844 21.574219 C 9.523438 21.828125 10.75 21.953125 11.976562 21.953125 C 13.199219 21.953125 14.421875 21.828125 15.566406 21.574219 L 15.566406 22.410156 C 15.566406 22.453125 15.566406 22.5 15.519531 22.5 Z M 15.519531 22.5"/>
</svg>

<svg xmlns="http://www.w3.org/2000/svg" width="32" height="32" viewBox="0 0 24 24">
    <path d="M11.066 2.363c.274 0 .454-.18.454-.453a.456.456 0 0 0-.454-.457c-.273 0-.457.184-.457.457 0 .274.184.453.457.453zm0 0M12.883 2.363c.273 0 .457-.18.457-.453a.46.46 0 0 0-.457-.457c-.274 0-.453.184-.453.457 0 .274.18.453.453.453zm0 0M14.703 2.363c.274 0 .453-.18.453-.453a.456.456 0 0 0-.453-.457c-.273 0-.457.184-.457.457 0 .274.184.453.457.453zm0 0M9.246 2.363c.274 0 .457-.18.457-.453a.46.46 0 0 0-.457-.457c-.27 0-.453.184-.453.457 0 .274.184.453.453.453zm0 0M11.977 3.273c.27 0 .453-.183.453-.457a.456.456 0 0 0-.453-.453c-.274 0-.457.184-.457.453 0 .274.183.457.457.457zm0 0M10.156 3.273c.274 0 .453-.183.453-.457a.453.453 0 0 0-.453-.453c-.273 0-.453.184-.453.453 0 .274.18.457.453.457zm0 0M11.066 3.273c-.273 0-.457.18-.457.454 0 .273.184.457.457.457.274 0 .454-.184.454-.457a.453.453 0 0 0-.454-.454zm0 0M12.883 3.273c-.274 0-.453.18-.453.454 0 .273.18.457.453.457s.457-.184.457-.457a.456.456 0 0 0-.457-.454zm0 0M15.61 3.273c.273 0 .456-.183.456-.457a.456.456 0 0 0-.457-.453.43.43 0 0 0-.453.453c0 .274.184.457.453.457zm0 0M13.793 3.273c.273 0 .453-.183.453-.457a.453.453 0 0 0-.453-.453c-.273 0-.453.184-.453.453 0 .274.18.457.453.457zm0 0M14.703 3.273c-.273 0-.457.18-.457.454 0 .273.184.457.457.457.274 0 .453-.184.453-.457a.453.453 0 0 0-.453-.454zm0 0M16.52 4.184c.273 0 .457-.184.457-.457a.456.456 0 0 0-.457-.454c-.274 0-.454.18-.454.454 0 .273.18.457.454.457zm0 0M8.34 3.273c.27 0 .453-.183.453-.457a.456.456 0 0 0-.453-.453c-.274 0-.457.184-.457.453 0 .274.183.457.457.457zm0 0M7.43 4.184c.273 0 .453-.184.453-.457a.453.453 0 0 0-.453-.454c-.274 0-.453.18-.453.454 0 .273.18.457.453.457zm0 0M5.61 5.09c-.27 0-.454.183-.454.457 0 .27.184.453.453.453.274 0 .457-.184.457-.453a.457.457 0 0 0-.457-.457zm0 0M9.246 3.273c-.27 0-.453.18-.453.454 0 .273.184.457.453.457.274 0 .457-.184.457-.457a.456.456 0 0 0-.457-.454zm0 0M11.977 5.09c.27 0 .453-.18.453-.453a.456.456 0 0 0-.453-.453c-.274 0-.457.18-.457.453s.183.453.457.453zm0 0M10.156 5.09c.274 0 .453-.18.453-.453a.453.453 0 0 0-.453-.453c-.273 0-.453.18-.453.453s.18.453.453.453zm0 0M11.066 5.09c-.273 0-.457.183-.457.457 0 .27.184.453.457.453.274 0 .454-.184.454-.453 0-.23-.18-.457-.454-.457zm0 0M12.883 5.09c-.274 0-.453.183-.453.457 0 .27.18.453.453.453s.457-.184.457-.453a.457.457 0 0 0-.457-.457zm0 0M15.61 5.09c.273 0 .456-.18.456-.453a.456.456 0 0 0-.457-.453c-.27 0-.453.18-.453.453s.184.453.453.453zm0 0M13.793 5.09c.273 0 .453-.18.453-.453a.453.453 0 0 0-.453-.453c-.273 0-.453.18-.453.453s.18.453.453.453zm0 0M14.703 5.09c-.273 0-.457.183-.457.457 0 .27.184.453.457.453.274 0 .453-.184.453-.453 0-.23-.18-.457-.453-.457zm0 0M16.52 5.09c-.274 0-.454.183-.454.457 0 .27.18.453.454.453.273 0 .457-.184.457-.453a.457.457 0 0 0-.457-.457zm0 0M17.43 5.09c.273 0 .453-.18.453-.453a.453.453 0 0 0-.453-.453c-.274 0-.453.18-.453.453s.18.453.453.453zm0 0M18.34 6a.43.43 0 0 0 .453-.453.456.456 0 0 0-.453-.457c-.274 0-.457.183-.457.457 0 .27.183.453.457.453zm0 0M8.34 5.09c.27 0 .453-.18.453-.453a.456.456 0 0 0-.453-.453c-.274 0-.457.18-.457.453s.183.453.457.453zm0 0M6.52 4.184c-.274 0-.454.18-.454.453s.18.453.454.453c.273 0 .457-.18.457-.453a.456.456 0 0 0-.457-.453zm0 0M7.43 5.09c-.274 0-.453.183-.453.457 0 .27.18.453.453.453s.453-.184.453-.453c0-.23-.18-.457-.453-.457zm0 0M9.246 5.09c-.27 0-.453.183-.453.457 0 .27.184.453.453.453.274 0 .457-.184.457-.453a.457.457 0 0 0-.457-.457zm0 0M11.977 6c-.274 0-.457.184-.457.453 0 .274.183.457.457.457.27 0 .453-.183.453-.457A.456.456 0 0 0 11.977 6zm0 0M10.156 6c-.273 0-.453.184-.453.453 0 .274.18.457.453.457.274 0 .453-.183.453-.457A.453.453 0 0 0 10.156 6zm0 0M15.61 6a.43.43 0 0 0-.454.453c0 .274.184.457.453.457.274 0 .457-.183.457-.457A.456.456 0 0 0 15.61 6zm0 0M13.793 6c-.273 0-.453.184-.453.453 0 .274.18.457.453.457s.453-.183.453-.457A.453.453 0 0 0 13.793 6zm0 0M8.34 6c-.274 0-.457.184-.457.453 0 .274.183.457.457.457.27 0 .453-.183.453-.457A.456.456 0 0 0 8.34 6zm0 0"/>
    <path d="M20.203 6.184c-.133-1.426-.808-2.715-1.86-3.743-.019-.02-.042-.039-.062-.058l-.023-.024C16.754.922 14.512 0 12.02 0c-.227 0-.454.047-.68.047A8.448 8.448 0 0 0 9.383.41l-.18.043c-.773.23-1.41.5-1.91.774-2.184 1.226-3.5 3.273-3.5 5.457v.132l3.637 6.579v7.515a.448.448 0 0 0 0 .145v1.355c0 .453.273.817.68.953 1.23.41 2.546.637 3.867.637 1.316 0 2.632-.184 3.906-.637.41-.136.683-.5.683-.953v-8.984l3.637-6.653v-.136a3.95 3.95 0 0 0-.008-.219.943.943 0 0 0 .008-.234zM8.34 14.316c2.363.5 4.906.5 7.226 0v6.309l-.046.012c-2.364.5-4.817.5-7.137 0l-.043-.012zm.09-1L5.184 7.422c2.027.555 4.336.851 6.793.851 2.437 0 4.726-.293 6.808-.84l-3.219 5.883c-2.363.5-4.82.5-7.136 0zM9.656 1.273c.035-.011.07-.02.106-.03.074.132.215.21.394.21.254 0 .43-.156.453-.398.266-.047.52-.078.774-.102h.14C11.52.97 11.52.984 11.52 1c0 .273.183.453.457.453.27 0 .453-.18.453-.453 0-.012 0-.023-.004-.035.312.015.617.047.914.094.027.238.2.394.453.394.184 0 .328-.082.402-.223.672.172 1.301.418 1.871.73.024.243.2.403.454.403a.46.46 0 0 0 .168-.027c.117.082.23.164.343.25a.49.49 0 0 0-.054.23c0 .274.18.457.453.457.11 0 .207-.03.28-.086.087.09.169.18.247.274a.482.482 0 0 0-.074.266c0 .273.183.457.457.457a.474.474 0 0 0 .133-.02c.351.57.578 1.191.66 1.848a.415.415 0 0 0-.336.398c-.313.09-.629.172-.953.25a.502.502 0 0 0 .039-.207A.453.453 0 0 0 17.43 6c-.274 0-.453.184-.453.453 0 .156.058.281.156.36-.176.039-.352.07-.531.105-.028-.008-.055-.008-.082-.008a.515.515 0 0 0-.25.063c-.383.062-.778.117-1.176.164a.448.448 0 0 0-.39-.227c-.224 0-.384.117-.438.309-.309.027-.621.047-.934.062a.456.456 0 0 0-.45-.37c-.253 0-.429.16-.452.402-.164.003-.332.003-.5.003h-.414a.451.451 0 0 0-.45-.406c-.246 0-.418.149-.449.38a23.984 23.984 0 0 1-.933-.056.454.454 0 0 0-.438-.324c-.195 0-.344.094-.41.246-.379-.039-.754-.09-1.121-.144a.437.437 0 0 0-.285-.102.563.563 0 0 0-.168.024 18.064 18.064 0 0 1-.489-.09.443.443 0 0 0 .204-.39A.456.456 0 0 0 6.52 6c-.274 0-.454.184-.454.453 0 .098.024.18.063.25a17.667 17.667 0 0 1-.973-.258.453.453 0 0 0-.406-.441c.05-.352.145-.695.273-1.031a.45.45 0 0 0 .133-.305 5.47 5.47 0 0 1 .278-.516.52.52 0 0 0 .175.032c.274 0 .457-.184.457-.457a.47.47 0 0 0-.105-.29l.074-.085a.17.17 0 0 0 .024-.028l.152-.156a.468.468 0 0 0 .309.105c.273 0 .457-.183.457-.457a.467.467 0 0 0-.082-.253c.105-.083.218-.16.332-.239.058.024.128.04.203.04.265 0 .441-.173.453-.43.426-.204.933-.41 1.594-.618zM15.52 22.5a11.265 11.265 0 0 1-7.137 0s-.043-.047-.043-.09v-.836c1.183.254 2.41.38 3.637.38 1.222 0 2.445-.126 3.59-.38v.836c0 .043 0 .09-.047.09zm0 0"/>
</svg>
